X:1
T: Mrs. Muir of Caldwall
C:
R:Strathspey
Q: 128
K:D
M:4/4
L:1/16
|:d2|A2F2 A3B A3B d2F2|A2F2 A3B A6 B2|A2F2 A2B2 A3B d2F2|EE3 F3A B4-B2d2|
A2F2 A3B A3B d2F2|A2F2 A3B A6 B2|A2F2 A2B2 A3B d2F2|EE3 F3A B4-B2g2|
f3d e3c d3A F2D2|fd3 e3c d6 g2|f3d e3c d3A F2D2|EE3 F3A B4-B2g2|
f2d2 e2c2 d3A F2D2|fd3 ec3 d6 g2|fa3 ef3 d3A F2D2|EE3 F3A B4-B2:|
